X:1
T:Yossel! Yossel!
C:Nellie Casman
B:Easy to Play Jewish Song Hits, Kammen Music Co., 1957
M:4/4
L:1/4
K:Em
B,EG ||\
"Em"B2 "Am"c2 | "Em"BBAG |   c B3-|B B,EG  |\
"Em"B2 "Am"c2 | "Em"BAcB | "B7"A4-|A B,^DF |
"B7"A2 B2 | AAGF | A A3-|AB,^DF |\
"B7"A2 B2 | AGBA | "Em"G4-|G B,EG  |
"Em"B2 "Am"c2 | "Em"BBAG |   c B3-|B B,EG  |\
"Em"B2 "Am"e2 | "E7"dBed | "Am"[A4c4]-|[A3c3] c |
"Am"eeee | e2 dc | "Em"BBBB | B2 AG |\
"Em"B2 G2 | "B7"AAGF | "Em"E2-"Am"E2-|"Em"E ||
